X:7895
T:Mowing the barley
C:anon.
O:England
R:Jig
Z:Transcribed by Frank Nordberg - http://www.musicaviva.com
F:http://abc.musicaviva.com/tunes/england/mowing-the-barley.abc
M:6/8
L:1/8
K:G
d|e2d e2d|e2d e2d|b2a g2f|e3 d2d|
ccc edc|BBB d2B|G2B d2B|A3 G2d|
e2d eed|eed e2d|b2a ggf|e3 d2d|
ccc e2c|B2B d2B|GGB ddB|A3 G2z|]
W:
W:
W:  From Musica Viva - http://www.musicaviva.com
W:  the Internet center for free sheet music downloads.
